img/logo.svg

<svg width="70" height="70" viewBox="0 0 70 70" fill="none" xmlns="http://www.w3.org/2000/svg">
<path d="M13.3008 57.7807C13.2775 59.5073 14.4488 63.1147 19.3208 63.7307C20.2074 63.8707 22.4428 63.6327 24.2908 61.5607L28.2808 55.7507L35.0008 46.0207L42.5608 35.0307L48.3708 26.5607L55.8608 15.7107C56.7242 14.1473 57.6668 10.3766 54.5308 7.80063C51.3948 5.22464 48.0908 6.54064 46.8308 7.52064L46.1308 8.08063L45.7808 8.43063L43.1908 12.1406L35.0008 24.0407L25.7608 37.4807V12.4206C25.8542 10.3673 24.0108 6.33063 19.6008 6.33063C14.8408 6.33064 13.2541 10.3906 13.3008 12.4206V57.7807Z" fill="#FECB4D"/>
<path d="M35.001 46.0203L40.671 54.2803L45.571 61.3503C46.9944 63.1235 50.933 65.6343 55.301 61.4903C56.141 60.4635 57.499 57.7523 56.211 55.1203C56.0944 54.8635 55.819 54.2943 55.651 54.0703C55.483 53.8463 53.2944 50.6169 52.221 49.0303L47.671 42.4503L42.561 35.0303L35.001 46.0203Z" fill="black"/>
</svg>

<svg width="70" height="70" fill="none" xmlns="http://www.w3.org/2000/svg"><path d="M13.3 57.78c-.023 1.727 1.149 5.335 6.02 5.95.887.14 3.123-.097 4.97-2.17l3.99-5.81L35 46.02l7.56-10.99 5.81-8.47 7.49-10.85c.864-1.563 1.807-5.333-1.33-7.91-3.135-2.575-6.44-1.26-7.7-.28l-.7.56-.35.35-2.59 3.71L35 24.04l-9.24 13.44V12.42c.094-2.053-1.75-6.09-6.16-6.09-4.76 0-6.346 4.06-6.3 6.09v45.36z" fill="#FECB4D"/><path d="M35.001 46.02l5.67 8.26 4.9 7.07c1.423 1.773 5.362 4.284 9.73.14.84-1.026 2.198-3.738.91-6.37-.117-.256-.392-.826-.56-1.05-.168-.224-2.357-3.453-3.43-5.04l-4.55-6.58-5.11-7.42-7.56 10.99z" fill="#000"/></svg>
